#C Generated by copy.sh/life
x = 285, y = 201, rule = B3/S23
86b3o$86b4o$85b2obobo7b3o$89bo8b4o$84bo2bo9b2obobo7b3o$85bo2bo12bo8b4o
$85bo2b2o6bo2bo9b2obobo7b3o$86b3o8bo2bo12bo8b4o$85bobo9bo2b2o6bo2bo9b
2obobo7b3o$85b3o10b3o8bo2bo12bo8b4o$84bo12bobo9bo2b2o6bo2bo9b2obobo7b
3o$84bo2bo9b3o10b3o8bo2bo12bo8b4o$85bob2o7bo12bobo9bo2b2o6bo2bo9b2obob
o7b3o$86bo9bo2bo9b3o10b3o8bo2bo12bo8b4o$97bob2o7bo12bobo9bo2b2o6bo2bo
9b2obobo7b3o$86bo11bo9bo2bo9b3o10b3o8bo2bo12bo8b4o$85bob2o20bob2o7bo
12bobo9bo2b2o6bo2bo9b2obobo7b3o$84bo2bo10bo11bo9bo2bo9b3o10b3o8bo2bo
12bo8b4o$84bo12bob2o20bob2o7bo12bobo9bo2b2o6bo2bo9b2obobo7b3o$85b3o8bo
2bo10bo11bo9bo2bo9b3o10b3o8bo2bo12bo8b4o$85bobo8bo12bob2o20bob2o7bo12b
obo9bo2b2o6bo2bo9b2obobo7b3o$86b3o8b3o8bo2bo10bo11bo9bo2bo9b3o10b3o8bo
2bo12bo8b4o$85bo2b2o7bobo8bo12bob2o20bob2o7bo12bobo9bo2b2o6bo2bo9b2obo
bo7b3o$85bo2bo9b3o8b3o8bo2bo10bo11bo9bo2bo9b3o10b3o8bo2bo12bo8b4o$84bo
2bo9bo2b2o7bobo8bo12bob2o20bob2o7bo12bobo9bo2b2o6bo2bo9b2obobo7b3o$89b
o7bo2bo9b3o8b3o8bo2bo10bo11bo9bo2bo9b3o10b3o8bo2bo12bo8b4o$85b2obobo5b
o2bo9bo2b2o7bobo8bo12bob2o20bob2o7bo12bobo9bo2b2o6bo2bo9b2obobo7b3o$
86b4o11bo7bo2bo9b3o8b3o8bo2bo10bo11bo9bo2bo9b3o10b3o8bo2bo12bo8b4o$86b
3o8b2obobo5bo2bo9bo2b2o7bobo8bo12bob2o20bob2o7bo12bobo9bo2b2o6bo2bo9b
2obobo$91bo6b4o11bo7bo2bo9b3o8b3o8bo2bo10bo11bo9bo2bo9b3o10b3o8bo2bo
12bo$91bo6b3o8b2obobo5bo2bo9bo2b2o7bobo8bo12bob2o20bob2o7bo12bobo9bo2b
2o6bo2bo$90bobo10bo6b4o11bo7bo2bo9b3o8b3o8bo2bo10bo11bo9bo2bo9b3o10b3o
8bo2bo$103bo6b3o8b2obobo5bo2bo9bo2b2o7bobo8bo12bob2o20bob2o7bo12bobo9b
o2b2o$91b2o9bobo10bo6b4o11bo7bo2bo9b3o8b3o8bo2bo10bo11bo9bo2bo9b3o10b
3o$115bo6b3o8b2obobo5bo2bo9bo2b2o7bobo8bo12bob2o20bob2o7bo12bobo$90b2o
11b2o9bobo10bo6b4o11bo7bo2bo9b3o8b3o8bo2bo10bo11bo9bo2bo9b3o$89b3o35bo
6b3o8b2obobo5bo2bo9bo2b2o7bobo8bo12bob2o20bob2o7bo$89b3o10b2o11b2o9bob
o10bo6b4o11bo7bo2bo9b3o8b3o8bo2bo10bo11bo9bo2bo$88bo12b3o35bo6b3o8b2ob
obo5bo2bo9bo2b2o7bobo8bo12bob2o20bob2o$88bo12b3o10b2o11b2o9bobo10bo6b
4o11bo7bo2bo9b3o8b3o8bo2bo10bo11bo$89b3o8bo12b3o35bo6b3o8b2obobo5bo2bo
9bo2b2o7bobo8bo12bob2o$89b3o8bo12b3o10b2o11b2o9bobo10bo6b4o11bo7bo2bo
9b3o8b3o8bo2bo10bo$90b2o9b3o8bo12b3o35bo6b3o8b2obobo5bo2bo9bo2b2o7bobo
8bo12bob2o$101b3o8bo12b3o10b2o11b2o9bobo10bo6b4o11bo7bo2bo9b3o8b3o8bo
2bo$91b2o9b2o9b3o8bo12b3o35bo6b3o8b2obobo5bo2bo9bo2b2o7bobo8bo$113b3o
8bo12b3o10b2o11b2o9bobo10bo6b4o11bo7bo2bo9b3o8b3o$90bo12b2o9b2o9b3o8bo
12b3o35bo6b3o8b2obobo5bo2bo9bo2b2o7bobo$90bobo32b3o8bo12b3o10b2o11b2o
9bobo10bo6b4o11bo7bo2bo9b3o$90bo11bo12b2o9b2o9b3o8bo12b3o35bo6b3o8b2ob
obo5bo2bo9bo2b2o$89bo2bo9bobo32b3o8bo12b3o10b2o11b2o9bobo10bo6b4o11bo
7bo2bo$89b3o10bo11bo12b2o9b2o9b3o8bo12b3o35bo6b3o8b2obobo5bo2bo$88bo
12bo2bo9bobo32b3o8bo12b3o10b2o11b2o9bobo10bo6b4o11bo$88b2o11b3o10bo11b
o12b2o9b2o9b3o8bo12b3o35bo6b3o8b2obobo$88b3o9bo12bo2bo9bobo32b3o8bo12b
3o10b2o11b2o9bobo10bo6b4o$100b2o11b3o10bo11bo12b2o9b2o9b3o8bo12b3o35bo
6b3o$88bo11b3o9bo12bo2bo9bobo32b3o8bo12b3o10b2o11b2o9bobo10bo$84b3o25b
2o11b3o10bo11bo12b2o9b2o9b3o8bo12b3o35bo$84b3o13bo11b3o9bo12bo2bo9bobo
32b3o8bo12b3o10b2o11b2o9bobo$84b2o10b3o25b2o11b3o10bo11bo12b2o9b2o9b3o
8bo12b3o$86bo9b3o13bo11b3o9bo12bo2bo9bobo32b3o8bo12b3o10b2o11b2o$84b2o
10b2o10b3o25b2o11b3o10bo11bo12b2o9b2o9b3o8bo12b3o$77bobo4b2o12bo9b3o
13bo11b3o9bo12bo2bo9bobo32b3o8bo12b3o10b2o$76bo7b2o10b2o10b2o10b3o25b
2o11b3o10bo11bo12b2o9b2o9b3o8bo12b3o$76bo3bo3b3o9b2o12bo9b3o13bo11b3o
9bo12bo2bo9bobo32b3o8bo12b3o$78b2o5b3o8b2o10b2o10b2o10b3o25b2o11b3o10b
o11bo12b2o9b2o9b3o8bo$76b3o8bo8b3o9b2o12bo9b3o13bo11b3o9bo12bo2bo9bobo
32b3o8bo$69b3o4bo2bo3b2o12b3o8b2o10b2o10b2o10b3o25b2o11b3o10bo11bo12b
2o9b2o9b3o$72bo5b2o3b2o14bo8b3o9b2o12bo9b3o13bo11b3o9bo12bo2bo9bobo32b
3o$69bob2o4bo3bo8b2o3b2o12b3o8b2o10b2o10b2o10b3o25b2o11b3o10bo11bo12b
2o9b2o$63b2o3b2ob2o4b10o3b2o3b2o14bo8b3o9b2o12bo9b3o13bo11b3o9bo12bo2b
o9bobo$62b3o4bo2b2obo17bo8b2o3b2o12b3o8b2o10b2o10b2o10b3o25b2o11b3o10b
o11bo12b2o$61b2ob2o3b2ob27o3b2o3b2o14bo8b3o9b2o12bo9b3o13bo11b3o9bo12b
o2bo9bobo$63bo41bo8b2o3b2o12b3o8b2o10b2o10b2o10b3o25b2o11b3o10bo11bo$
61b2o6b42o3b2o3b2o14bo8b3o9b2o12bo9b3o13bo11b3o9bo12bo2bo9bobo$54b2o5b
o2bo3bo48bo8b2o3b2o12b3o8b2o10b2o10b2o10b3o25b2o11b3o10bo$55bobo5b2o3b
55o3b2o3b2o14bo8b3o9b2o12bo9b3o13bo11b3o9bo12bo2bo$21b3o30bob2o71bo8b
2o3b2o12b3o8b2o10b2o10b2o10b3o25b2o11b3o$21b4o23bo5bo7b73o3b2o3b2o14bo
8b3o9b2o12bo9b3o13bo11b3o9bo$20b2obobo22b2o4bo2bo3bo79bo8b2o3b2o12b3o
8b2o10b2o10b2o10b3o25b2o$24bo22bo2bo4b4ob87o3b2o3b2o14bo8b3o9b2o12bo9b
3o13bo11b3o$19bo2bo23b2o3bo3bo3bo93bo8b2o3b2o12b3o8b2o10b2o10b2o10b3o$
20bo2bo16bobo3b2o6b105o3b2o3b2o14bo8b3o9b2o12bo9b3o13bo$20bo2b2o14bo
13bo111bo8b2o3b2o12b3o8b2o10b2o10b2o10b3o$21b3o15bo3bo3b4o2b118o3b2o3b
2o14bo8b3o9b2o12bo9b3o$20bobo18b2o134bo8b2o3b2o12b3o8b2o10b2o10b2o$20b
3o16b3o5b136o3b2o3b2o14bo8b3o9b2o12bo10bo$19bo12b3o4bo2bo3bo142bo8b2o
3b2o12b3o8b2o10b2o11b2o$19bo2bo12bo5b2o3b149o3b2o3b2o14bo8b3o9b2o10bo
2bo$20bob2o8bob2o4bo3bo156bo8b2o3b2o12b3o8b2o9b2o3bo$21bo9b2ob2o4b167o
3b2o3b2o14bo8b3o8b2o$32bo2b2obo174bo8b2o3b2o12b3o21b2o2bo$5bo15bo10b2o
b184o3b2o3b2o14bo8b4obo3b2o2b5o$3b2obo13bob2o201bo8b2o3b2o19bob2obo16b
2o$3b3obo7bo3bo2bo9b199o3b2o3b2o11b6o2bo5bobo9b2o4bo$14bobo2bo6b2o3bo
205bo8b2o3bo8b2o5bo2bo6bo4bo$3b5ob2o3b2o4b3o3b2o3b212o3b2o3b9obo2bob2o
bobo4b2o4b2o$2bo9bo3bo2bo3bo225bo10bo3bo6bo4b2o$2b5obob6o4b244o7bo4b2o
4b2o$3bo2b2obo7bo247bobo7bo4bob2o$2o2b2o4b258o8b3o$3ob2o$2o2b2o4b258o
8b3o$3bo2b2obo7bo247bobo7bo4bob2o$2b5obob6o4b244o7bo4b2o4b2o$2bo9bo3bo
2bo3bo225bo10bo3bo6bo4b2o$3b5ob2o3b2o4b3o3b2o3b212o3b2o3b9obo2bob2obob
o4b2o4b2o$14bobo2bo6b2o3bo205bo8b2o3bo8b2o5bo2bo6bo4bo$3b3obo7bo3bo2bo
9b199o3b2o3b2o11b6o2bo5bobo9b2o4bo$3b2obo13bob2o201bo8b2o3b2o19bob2obo
16b2o$5bo15bo10b2ob184o3b2o3b2o14bo8b4obo3b2o2b5o$32bo2b2obo174bo8b2o
3b2o12b3o21b2o2bo$21bo9b2ob2o4b167o3b2o3b2o14bo8b3o8b2o$20bob2o8bob2o
4bo3bo156bo8b2o3b2o12b3o8b2o9b2o3bo$19bo2bo12bo5b2o3b149o3b2o3b2o14bo
8b3o9b2o10bo2bo$19bo12b3o4bo2bo3bo142bo8b2o3b2o12b3o8b2o10b2o11b2o$20b
3o16b3o5b136o3b2o3b2o14bo8b3o9b2o12bo10bo$20bobo18b2o134bo8b2o3b2o12b
3o8b2o10b2o10b2o$21b3o15bo3bo3b4o2b118o3b2o3b2o14bo8b3o9b2o12bo9b3o$
20bo2b2o14bo13bo111bo8b2o3b2o12b3o8b2o10b2o10b2o10b3o$20bo2bo16bobo3b
2o6b105o3b2o3b2o14bo8b3o9b2o12bo9b3o13bo$19bo2bo23b2o3bo3bo3bo93bo8b2o
3b2o12b3o8b2o10b2o10b2o10b3o$24bo22bo2bo4b4ob87o3b2o3b2o14bo8b3o9b2o
12bo9b3o13bo11b3o$20b2obobo22b2o4bo2bo3bo79bo8b2o3b2o12b3o8b2o10b2o10b
2o10b3o25b2o$21b4o23bo5bo7b73o3b2o3b2o14bo8b3o9b2o12bo9b3o13bo11b3o9bo
$21b3o30bob2o71bo8b2o3b2o12b3o8b2o10b2o10b2o10b3o25b2o11b3o$55bobo5b2o
3b55o3b2o3b2o14bo8b3o9b2o12bo9b3o13bo11b3o9bo12bo2bo$54b2o5bo2bo3bo48b
o8b2o3b2o12b3o8b2o10b2o10b2o10b3o25b2o11b3o10bo$61b2o6b42o3b2o3b2o14bo
8b3o9b2o12bo9b3o13bo11b3o9bo12bo2bo9bobo$63bo41bo8b2o3b2o12b3o8b2o10b
2o10b2o10b3o25b2o11b3o10bo11bo$61b2ob2o3b2ob27o3b2o3b2o14bo8b3o9b2o12b
o9b3o13bo11b3o9bo12bo2bo9bobo$62b3o4bo2b2obo17bo8b2o3b2o12b3o8b2o10b2o
10b2o10b3o25b2o11b3o10bo11bo12b2o$63b2o3b2ob2o4b10o3b2o3b2o14bo8b3o9b
2o12bo9b3o13bo11b3o9bo12bo2bo9bobo$69bob2o4bo3bo8b2o3b2o12b3o8b2o10b2o
10b2o10b3o25b2o11b3o10bo11bo12b2o9b2o$72bo5b2o3b2o14bo8b3o9b2o12bo9b3o
13bo11b3o9bo12bo2bo9bobo32b3o$69b3o4bo2bo3b2o12b3o8b2o10b2o10b2o10b3o
25b2o11b3o10bo11bo12b2o9b2o9b3o$76b3o8bo8b3o9b2o12bo9b3o13bo11b3o9bo
12bo2bo9bobo32b3o8bo$78b2o5b3o8b2o10b2o10b2o10b3o25b2o11b3o10bo11bo12b
2o9b2o9b3o8bo$76bo3bo3b3o9b2o12bo9b3o13bo11b3o9bo12bo2bo9bobo32b3o8bo
12b3o$76bo7b2o10b2o10b2o10b3o25b2o11b3o10bo11bo12b2o9b2o9b3o8bo12b3o$
77bobo4b2o12bo9b3o13bo11b3o9bo12bo2bo9bobo32b3o8bo12b3o10b2o$84b2o10b
2o10b3o25b2o11b3o10bo11bo12b2o9b2o9b3o8bo12b3o$86bo9b3o13bo11b3o9bo12b
o2bo9bobo32b3o8bo12b3o10b2o11b2o$84b2o10b3o25b2o11b3o10bo11bo12b2o9b2o
9b3o8bo12b3o$84b3o13bo11b3o9bo12bo2bo9bobo32b3o8bo12b3o10b2o11b2o9bobo
$84b3o25b2o11b3o10bo11bo12b2o9b2o9b3o8bo12b3o35bo$88bo11b3o9bo12bo2bo
9bobo32b3o8bo12b3o10b2o11b2o9bobo10bo$100b2o11b3o10bo11bo12b2o9b2o9b3o
8bo12b3o35bo6b3o$88b3o9bo12bo2bo9bobo32b3o8bo12b3o10b2o11b2o9bobo10bo
6b4o$88b2o11b3o10bo11bo12b2o9b2o9b3o8bo12b3o35bo6b3o8b2obobo$88bo12bo
2bo9bobo32b3o8bo12b3o10b2o11b2o9bobo10bo6b4o11bo$89b3o10bo11bo12b2o9b
2o9b3o8bo12b3o35bo6b3o8b2obobo5bo2bo$89bo2bo9bobo32b3o8bo12b3o10b2o11b
2o9bobo10bo6b4o11bo7bo2bo$90bo11bo12b2o9b2o9b3o8bo12b3o35bo6b3o8b2obob
o5bo2bo9bo2b2o$90bobo32b3o8bo12b3o10b2o11b2o9bobo10bo6b4o11bo7bo2bo9b
3o$90bo12b2o9b2o9b3o8bo12b3o35bo6b3o8b2obobo5bo2bo9bo2b2o7bobo$113b3o
8bo12b3o10b2o11b2o9bobo10bo6b4o11bo7bo2bo9b3o8b3o$91b2o9b2o9b3o8bo12b
3o35bo6b3o8b2obobo5bo2bo9bo2b2o7bobo8bo$101b3o8bo12b3o10b2o11b2o9bobo
10bo6b4o11bo7bo2bo9b3o8b3o8bo2bo$90b2o9b3o8bo12b3o35bo6b3o8b2obobo5bo
2bo9bo2b2o7bobo8bo12bob2o$89b3o8bo12b3o10b2o11b2o9bobo10bo6b4o11bo7bo
2bo9b3o8b3o8bo2bo10bo$89b3o8bo12b3o35bo6b3o8b2obobo5bo2bo9bo2b2o7bobo
8bo12bob2o$88bo12b3o10b2o11b2o9bobo10bo6b4o11bo7bo2bo9b3o8b3o8bo2bo10b
o11bo$88bo12b3o35bo6b3o8b2obobo5bo2bo9bo2b2o7bobo8bo12bob2o20bob2o$89b
3o10b2o11b2o9bobo10bo6b4o11bo7bo2bo9b3o8b3o8bo2bo10bo11bo9bo2bo$89b3o
35bo6b3o8b2obobo5bo2bo9bo2b2o7bobo8bo12bob2o20bob2o7bo$90b2o11b2o9bobo
10bo6b4o11bo7bo2bo9b3o8b3o8bo2bo10bo11bo9bo2bo9b3o$115bo6b3o8b2obobo5b
o2bo9bo2b2o7bobo8bo12bob2o20bob2o7bo12bobo$91b2o9bobo10bo6b4o11bo7bo2b
o9b3o8b3o8bo2bo10bo11bo9bo2bo9b3o10b3o$103bo6b3o8b2obobo5bo2bo9bo2b2o
7bobo8bo12bob2o20bob2o7bo12bobo9bo2b2o$90bobo10bo6b4o11bo7bo2bo9b3o8b
3o8bo2bo10bo11bo9bo2bo9b3o10b3o8bo2bo$91bo6b3o8b2obobo5bo2bo9bo2b2o7bo
bo8bo12bob2o20bob2o7bo12bobo9bo2b2o6bo2bo$91bo6b4o11bo7bo2bo9b3o8b3o8b
o2bo10bo11bo9bo2bo9b3o10b3o8bo2bo12bo$86b3o8b2obobo5bo2bo9bo2b2o7bobo
8bo12bob2o20bob2o7bo12bobo9bo2b2o6bo2bo9b2obobo$86b4o11bo7bo2bo9b3o8b
3o8bo2bo10bo11bo9bo2bo9b3o10b3o8bo2bo12bo8b4o$85b2obobo5bo2bo9bo2b2o7b
obo8bo12bob2o20bob2o7bo12bobo9bo2b2o6bo2bo9b2obobo7b3o$89bo7bo2bo9b3o
8b3o8bo2bo10bo11bo9bo2bo9b3o10b3o8bo2bo12bo8b4o$84bo2bo9bo2b2o7bobo8bo
12bob2o20bob2o7bo12bobo9bo2b2o6bo2bo9b2obobo7b3o$85bo2bo9b3o8b3o8bo2bo
10bo11bo9bo2bo9b3o10b3o8bo2bo12bo8b4o$85bo2b2o7bobo8bo12bob2o20bob2o7b
o12bobo9bo2b2o6bo2bo9b2obobo7b3o$86b3o8b3o8bo2bo10bo11bo9bo2bo9b3o10b
3o8bo2bo12bo8b4o$85bobo8bo12bob2o20bob2o7bo12bobo9bo2b2o6bo2bo9b2obobo
7b3o$85b3o8bo2bo10bo11bo9bo2bo9b3o10b3o8bo2bo12bo8b4o$84bo12bob2o20bob
2o7bo12bobo9bo2b2o6bo2bo9b2obobo7b3o$84bo2bo10bo11bo9bo2bo9b3o10b3o8bo
2bo12bo8b4o$85bob2o20bob2o7bo12bobo9bo2b2o6bo2bo9b2obobo7b3o$86bo11bo
9bo2bo9b3o10b3o8bo2bo12bo8b4o$97bob2o7bo12bobo9bo2b2o6bo2bo9b2obobo7b
3o$86bo9bo2bo9b3o10b3o8bo2bo12bo8b4o$85bob2o7bo12bobo9bo2b2o6bo2bo9b2o
bobo7b3o$84bo2bo9b3o10b3o8bo2bo12bo8b4o$84bo12bobo9bo2b2o6bo2bo9b2obob
o7b3o$85b3o10b3o8bo2bo12bo8b4o$85bobo9bo2b2o6bo2bo9b2obobo7b3o$86b3o8b
o2bo12bo8b4o$85bo2b2o6bo2bo9b2obobo7b3o$85bo2bo12bo8b4o$84bo2bo9b2obob
o7b3o$89bo8b4o$85b2obobo7b3o$86b4o$86b3o!